!!!OTL: Der Kuckuck.
!!!OTL-incipit: EIN SCHAEFERMAEDCHEN WEIDETE
!!!ARE: Europa, Mitteleuropa, Deutschland, Westfalen
!!!SCT: Z1100
!!!TXL: @@DE
!!!YEM: Copyright 1995, estate of Helmut Schaffrath.
**kern	**text
*ICvox	*
*M6/8	*
*k[f#]	*
*G:	*
!LO:TX:a:t=Aus Weſtphalen.	!
{8d	Ein
=1	=1
8dL	Schä-
8gJ	.
8g	-fer-
8gL	-mäd-
8f#J	.
8g	-chen
=2	=2
8bL	wei-
8aJ	.
8a	-de-
4a}	-te,
{8a	die
=3	=3
4b	Läm-
8b	-mer
8ddL	an
8ccJ	.
8a	der
=4	=4
4g	Hand,
8r	.
4r}	.
{8d	auf
=5	=5
4g	ei-
8g	-ner
8gL	Flur,
8f#J	.
8g	wo
=6	=6
4b/	fri-
8a	-ſcher
4a}	Klee
{8a	voll
=7	=7
4b	Gän-
8b	-ſe-
8ddL	-blüm-
8ccJ	.
8a	-chen
=8	=8
4b	ſtand,
8r	.
4r}	.
{8dd	da
=9	=9
4cc#	hör-
8a	-te
8aL	ſie
8bJ	.
8cc#	im
=10	=10
(8eeL	na-
8ddJ)	.
8dd	-hen
4dd}	Hain,
{8dd	den
=11	=11
4cc#	Vo-
8a	-gel
8aL	Kuk-
8bJ	.
8cc#	-kuk
=12	=12
8eeL	lu-
8ddJ	.
8dd	-ſtig
4dd}	ſchrei'n
{8dd	Kuk-
=13	=13
4b	-kuk!
8dd	Kuk-
4a	-kuk!
8dd	Kuk-
=14	=14
4g	-kuk!
8r	.
4r}	.
==	==
!!!AGN: Romanze, Ballade
!!!ONB: ESAC (Essen Associative Code) Database: ZUCCAL
!!!AMT: compound duple
!!!AIN: vox
!!!EED: Helmut Schaffrath
!!!EEV: 1.0
!!!GTL: II. Gau- Leuschen.
!!!URL-scan: https://www.digitale-sammlungen.de/de/view/bsb11160573?page=215
!!!ENC: Anna Maria Matuszewska
!!!EEV: 2025/02/04
*-	*-
